X:1
T:Forza è che sempre
T:Luca Marenzio
T:Source : Il secondo Libro delle canzonette alla Napolitana a tre voci---Venetia---G.Vincenti---1587. Editor : André Vierendeels (04/05/17).
T:Notes : Original clefs : G2, C2, F3 Editorial accidentals above the staff "Seconda impressione" Music collected by Attilio Gualtieri m 9 in S 2 : excess quarter rest in original print m 12 in S 2 : "F" notated as quarter in original print 
T:Forza è che sempre
T:©
T:©
C:Luca Marenzio
Z:©
%%score [ 1 2 3 ]
L:1/8
Q:1/4=120
M:4/4
K:F
V:1 treble nm="Soprano 1" snm="S 1"
V:2 treble nm="Soprano 2" snm="S 2"
V:3 bass nm="Bass" snm="B"
V:1
"^1)" G8 | A4 B4 | c4 d4 | _e8 | d8 | z2 f2 d3 e | f2 d2 c4 |[M:2/4] B4 :| z2 d2 |: %9
w: Forz'|è che|sem- pre'i|gri-|da,|che per pie-|tà mi gui-|da,|ai|
w: Non|cre- do|che paz-|zi-|a,|sia si- mi-|le'a la mi-|a,|pos-|
[M:4/4] c3 d c3 B | A4 B3 B | A2 d4 ^c2 | d4 z2 g2- | g2 f2 g2 fe | f2 d4 c2 | d2 cB c2 A2 | %16
w: paz- za- rel- li|de piaz- za|co- lo- *|na, ch'ho|_ sma- ri- to'il cer-|vel, ch'ho sma|ri- to'il cer- vel per|
w: chia ch'io stes- so|bra- moes- ser|re- ga- *|lo, et|_ ch'al- tri ma'hab- bi-|a per mat-|to spa- ci- a- to,|
 d4 B4 | A8 | G8 :| %19
w: a- mar|don-|na.|
w: spa- ci-|a-|to.|
V:2
"^2)""^1)" z4 G4 | ^F4 G4 | A4 =B4 | c8 | F2 F2 B3 c | d4 B4 | A2 B4 A2 |[M:2/4] B4 :| F4 |: %9
w: Forz'|è che|sem- pre'i-|gri-|da, che per pie-|tà mi|gui- * *|da,|ai|
w: I|cep- pi'e|le ca-|te-|ne, ben mer- to'e|l'al- tre|pe- * *|ne,|con|
[M:4/4] F3 E F3 G | A4 G3 G | F4 E4 | D4 z2 B2- | B2 A2 c2 BA | G2 F4 A2 | B2 AG A2 F2 | %16
w: paz- za- rel- li|de piaz- za|co- lo-|na, ch'ho|_ sma- ri- to'il cer-|vel, ch'ho sma-|ri- to'il cer- vel per|
w: quai vien ca- sti-|ga- to'un paz-|za- rel-|lo, ac-|* cio che tor- ni|nel, ac- cio|che tor- ni nel suo|
 F2 D2 G4- | G2 ^FE F4 | G8 :| %19
w: a- mar don-||na.|
w: buon cer- vel-||lo.|
V:3
"^3)""^1)""^4)" G,8 | D,4 G,4 | F,4 D,4 | C,8 | B,,2 B,2 G,3 A, | B,6 G,2 | F,8 |[M:2/4] B,,4 :| %8
w: Forz'|è che|sem- pre'i|gri-|da, che per pie-|tà mi|gui-|da,|
w: Non|mio gu-|sto'in- fi-|ni-|to, di ver- de'an-|dro ve-|sti-|to,|
 A,4 |:[M:4/4] A,3 G, A,3 B, | F,4 G,3 G, | D,4 A,4 | D,4 G,4 | D4 C4 | B,4 A,4 | G,4 F,4 | %16
w: ai|paz- za- rel- li|de piaz- za|co- lo-|na, ch'ho|sma- ri-|to'il cer-|vel per|
w: he-|vro la te- sta|ra- sa'e di-|ro per|voi, in|que- sto|sta- to|son don-|
 B,,6 C,2 | D,8 | B,,8 :| %19
w: a- mar|don-|na.|
w: na per|vo-|i.|

